X: 08089
T: PETE JUNG'S REEL
C: Bob McQuillen 10 Apr 91
B: Bob's Note Book 8 #89
%R: reel
Z: 2021 John Chambers <jc:trillian.mit.edu>
M: C
L: 1/8
K: Bm
B,A, \
| B,2B,D EFDE | FABd fedB | AFAB dBAF | BAFD EDB,A, |\
| B,2B,D EFDE | FABd fedB | A2BA FDFE | DB,B,A, B,2 :|
|: de \
| fedf edBd | fded BAFA | B2df edBd | fedB AFAB |\
| d2df edBd | fdBd BAFA | dBAF BAFD | EDB,A, B,2 :|
%%begintext align
%% Pete Jung (pro. yung) hails from
%% Kingston, N.Y., and does great stuff on both guitar and bass. You can hear him
%% on Bo Bradham's new tape "Moving Clouds", and he wrote a waltz called "Far
%% Away" which is truly "state of the art", it's so beautiful. This tune attempts
%% to tell you how much I appreciate both, your tune and you, Pete -
%%endtext

%%sep 1 1 500

%%sep 1 1 500

